X: 34
T: Song xin niang
L: 1/16
M: 2/4
K: F
d2 d2 d e d c [I:setbarnb 1]| 
d2 d2f4 | 
g2 f2 d e d c | 
d2 d2d4 | 
f2 f2 d f d c | 
A2 G2G4 | 
F2 F G A G F E | 
D4D4 |]

@@@ Tune index: 8702
